img/presentation/header/message.svg

<svg width="25" height="26" viewBox="0 0 25 26" fill="none" xmlns="http://www.w3.org/2000/svg">
<path d="M21.7269 0.427795H3.12713C1.4173 0.427795 0.0271606 1.81794 0.0271606 3.52776V17.4776C0.0271606 19.1874 1.4173 20.5776 3.12713 20.5776H7.77708V24.6463C7.77708 25.121 8.31957 25.3971 8.70222 25.1161L14.752 20.5776H21.7269C23.4368 20.5776 24.8269 19.1874 24.8269 17.4776V3.52776C24.8269 1.81794 23.4368 0.427795 21.7269 0.427795ZM13.977 13.2152C13.977 13.4283 13.8026 13.6027 13.5895 13.6027H6.61459C6.40147 13.6027 6.22709 13.4283 6.22709 13.2152V12.4402C6.22709 12.227 6.40147 12.0527 6.61459 12.0527H13.5895C13.8026 12.0527 13.977 12.227 13.977 12.4402V13.2152ZM18.627 8.56521C18.627 8.77833 18.4526 8.9527 18.2395 8.9527H6.61459C6.40147 8.9527 6.22709 8.77833 6.22709 8.56521V7.79022C6.22709 7.57709 6.40147 7.40272 6.61459 7.40272H18.2395C18.4526 7.40272 18.627 7.57709 18.627 7.79022V8.56521Z" fill="#82C8C7"/>
</svg>

<svg width="25" height="26" fill="none" xmlns="http://www.w3.org/2000/svg"><path d="M21.727.428h-18.6c-1.71 0-3.1 1.39-3.1 3.1v13.95c0 1.71 1.39 3.1 3.1 3.1h4.65v4.068c0 .475.543.751.925.47l6.05-4.538h6.975c1.71 0 3.1-1.39 3.1-3.1V3.528c0-1.71-1.39-3.1-3.1-3.1zm-7.75 12.787a.389.389 0 01-.388.388H6.615a.389.389 0 01-.388-.388v-.775c0-.213.174-.387.388-.387h6.974c.214 0 .388.174.388.387v.775zm4.65-4.65a.389.389 0 01-.387.388H6.614a.389.389 0 01-.388-.388V7.79c0-.213.174-.387.388-.387h11.624c.214 0 .388.174.388.387v.775z" fill="#82C8C7"/></svg>
